static/img/device/component-bracket-fixing-screw.svg

<svg xmlns="http://www.w3.org/2000/svg" width="36" height="48" fill="none" viewBox="0 0 36 48"><g clip-path="url(#a)"><path fill="#fff" d="M24.97 20.01v.88c.92.35 1.4 1.11 1.41 1.56.02.53-.49 1.14-1.37 1.73l-.04.83c.92.35 1.4 1.11 1.41 1.56.02.53-.49 1.14-1.37 1.73l-.04.83c.92.35 1.4 1.11 1.41 1.56.02.53-.49 1.14-1.37 1.73l-.04.83c.92.35 1.4 1.11 1.41 1.56.02.53-.49 1.14-1.37 1.73l-.04.83c.92.35 1.4 1.11 1.41 1.56.02.53-.49 1.14-1.37 1.73l-.04.03v1.83c-.57 1.18-3.57 4.71-6.98 4.71-3.49 0-6.64-3.1-6.99-4.71v-.53c-.98-.44-1.56-.98-1.58-1.52-.02-.46.55-1.25 1.58-1.71v-.89c-.98-.44-1.56-.98-1.58-1.52-.02-.46.55-1.25 1.58-1.71v-.89c-.98-.44-1.56-.98-1.58-1.52-.02-.47.55-1.25 1.58-1.71v-.89c-.98-.44-1.56-.98-1.58-1.52-.02-.47.55-1.25 1.58-1.71v-.89c-.98-.44-1.56-.98-1.58-1.52-.02-.46.55-1.25 1.58-1.71v-2.25"/><path stroke="#000" stroke-linecap="round" stroke-linejoin="round" stroke-width=".5" d="M24.97 20.01v.88c.92.35 1.4 1.11 1.41 1.56.02.53-.49 1.14-1.37 1.73l-.04.83c.92.35 1.4 1.11 1.41 1.56.02.53-.49 1.14-1.37 1.73l-.04.83c.92.35 1.4 1.11 1.41 1.56.02.53-.49 1.14-1.37 1.73l-.04.83c.92.35 1.4 1.11 1.41 1.56.02.53-.49 1.14-1.37 1.73l-.04.83c.92.35 1.4 1.11 1.41 1.56.02.53-.49 1.14-1.37 1.73l-.04.03v1.83c-.57 1.18-3.57 4.71-6.98 4.71-3.49 0-6.64-3.1-6.99-4.71v-.53c-.98-.44-1.56-.98-1.58-1.52-.02-.46.55-1.25 1.58-1.71v-.89c-.98-.44-1.56-.98-1.58-1.52-.02-.46.55-1.25 1.58-1.71v-.89c-.98-.44-1.56-.98-1.58-1.52-.02-.47.55-1.25 1.58-1.71v-.89c-.98-.44-1.56-.98-1.58-1.52-.02-.47.55-1.25 1.58-1.71v-.89c-.98-.44-1.56-.98-1.58-1.52-.02-.46.55-1.25 1.58-1.71v-2.25"/><path fill="#fff" stroke="#000" stroke-linecap="round" stroke-linejoin="round" stroke-width=".5" d="M1.27 14.95c-1.38-3.15-1.4-6.03.19-9.1C3.14 2.65 9.9.25 17.99.25s14.88 2.41 16.54 5.62c1.19 2.32 1.59 5.98.3 8.82C33.24 18 26.42 20.66 18 20.66S2.91 18.21 1.27 14.95"/><path stroke="#000" stroke-linecap="round" stroke-linejoin="round" stroke-width=".3" d="M34.72 6.33c.12.35.19.7.19 1.07 0 3.95-7.58 7.15-16.92 7.15S1.07 11.35 1.07 7.4c0-.35.06-.69.17-1.03M25.02 40.65c-1.47.98-4 1.89-6.94 2.18-2.91.29-5.5-.14-7.08-.85M24.97 37.89c.04 1.08-3.09 2.5-6.91 2.86-3.82.37-7.03-.39-7.06-1.47"/><path stroke="#000" stroke-linecap="round" stroke-linejoin="round" stroke-width=".3" d="M25.02 36.54c-1.47.98-4 1.89-6.94 2.18-2.91.29-5.5-.14-7.08-.85M24.97 33.77c.04 1.08-3.09 2.5-6.91 2.86-3.82.37-7.03-.38-7.06-1.47"/><path stroke="#000" stroke-linecap="round" stroke-linejoin="round" stroke-width=".3" d="M25.02 32.42c-1.47.98-4 1.89-6.94 2.18-2.91.29-5.5-.15-7.08-.85M24.97 29.65c.04 1.09-3.09 2.5-6.91 2.86-3.82.37-7.03-.38-7.06-1.47"/><path stroke="#000" stroke-linecap="round" stroke-linejoin="round" stroke-width=".3" d="M25.02 28.3c-1.47.98-4 1.89-6.94 2.18-2.91.29-5.5-.15-7.08-.85M24.97 25.53c.04 1.09-3.09 2.5-6.91 2.86-3.82.37-7.03-.38-7.06-1.47"/><path stroke="#000" stroke-linecap="round" stroke-linejoin="round" stroke-width=".3" d="M25.02 24.18c-1.47.98-4 1.89-6.94 2.18-2.91.29-5.5-.14-7.08-.85M24.97 21.42c.04 1.08-3.09 2.5-6.91 2.86-3.82.37-7.03-.39-7.06-1.47M12.13 5.42l3.01.11c.22.02.41-.04.47-.14l1.08-1.33c.09-.15.43-.18.69-.1.09.03.16.07.22.12l1.66 1.55c.11.11.33.17.55.17l3.11-.1c.42-.01.77.25.56.42l-1.21 1.27c-.1.09-.07.21.08.31l1.89 1.41c.3.19.08.44-.35.4l-2.91-.14c-.22-.02-.41.04-.47.14l-1.19 1.36c-.12.2-.68.19-.91-.02L16.57 9.5c-.11-.11-.33-.17-.55-.17l-2.94-.11c-.42.01-.77-.25-.56-.42l1-1.32c.1-.09.07-.21-.08-.31l-1.68-1.36c-.3-.19-.08-.44.35-.4z"/></g><defs><clipPath id="a"><path fill="#fff" d="M0 0h35.87v47.47H0z"/></clipPath></defs></svg>

<svg width="36" height="48" viewBox="0 0 36 48" fill="none" xmlns="http://www.w3.org/2000/svg">
<g clip-path="url(#clip0_75_2769)">
<path d="M24.97 20.01V20.89C25.89 21.24 26.37 22 26.38 22.45C26.4 22.98 25.89 23.59 25.01 24.18L24.97 25.01C25.89 25.36 26.37 26.12 26.38 26.57C26.4 27.1 25.89 27.71 25.01 28.3L24.97 29.13C25.89 29.48 26.37 30.24 26.38 30.69C26.4 31.22 25.89 31.83 25.01 32.42L24.97 33.25C25.89 33.6 26.37 34.36 26.38 34.81C26.4 35.34 25.89 35.95 25.01 36.54L24.97 37.37C25.89 37.72 26.37 38.48 26.38 38.93C26.4 39.46 25.89 40.07 25.01 40.66L24.97 40.69V42.52C24.4 43.7 21.4 47.23 17.99 47.23C14.5 47.23 11.35 44.13 11 42.52V41.99C10.02 41.55 9.44 41.01 9.42 40.47C9.4 40.01 9.97 39.22 11 38.76V37.87C10.02 37.43 9.44 36.89 9.42 36.35C9.4 35.89 9.97 35.1 11 34.64V33.75C10.02 33.31 9.44 32.77 9.42 32.23C9.4 31.76 9.97 30.98 11 30.52V29.63C10.02 29.19 9.44 28.65 9.42 28.11C9.4 27.64 9.97 26.86 11 26.4V25.51C10.02 25.07 9.44 24.53 9.42 23.99C9.4 23.53 9.97 22.74 11 22.28V20.03" fill="white"/>
<path d="M24.97 20.01V20.89C25.89 21.24 26.37 22 26.38 22.45C26.4 22.98 25.89 23.59 25.01 24.18L24.97 25.01C25.89 25.36 26.37 26.12 26.38 26.57C26.4 27.1 25.89 27.71 25.01 28.3L24.97 29.13C25.89 29.48 26.37 30.24 26.38 30.69C26.4 31.22 25.89 31.83 25.01 32.42L24.97 33.25C25.89 33.6 26.37 34.36 26.38 34.81C26.4 35.34 25.89 35.95 25.01 36.54L24.97 37.37C25.89 37.72 26.37 38.48 26.38 38.93C26.4 39.46 25.89 40.07 25.01 40.66L24.97 40.69V42.52C24.4 43.7 21.4 47.23 17.99 47.23C14.5 47.23 11.35 44.13 11 42.52V41.99C10.02 41.55 9.44 41.01 9.42 40.47C9.4 40.01 9.97 39.22 11 38.76V37.87C10.02 37.43 9.44 36.89 9.42 36.35C9.4 35.89 9.97 35.1 11 34.64V33.75C10.02 33.31 9.44 32.77 9.42 32.23C9.4 31.76 9.97 30.98 11 30.52V29.63C10.02 29.19 9.44 28.65 9.42 28.11C9.4 27.64 9.97 26.86 11 26.4V25.51C10.02 25.07 9.44 24.53 9.42 23.99C9.4 23.53 9.97 22.74 11 22.28V20.03" stroke="black" stroke-width="0.5" stroke-linecap="round" stroke-linejoin="round"/>
<path d="M1.27 14.95C-0.110001 11.8 -0.130001 8.92 1.46 5.85C3.14 2.65 9.9 0.25 17.99 0.25C26.08 0.25 32.87 2.66 34.53 5.87C35.72 8.19 36.12 11.85 34.83 14.69C33.24 18 26.42 20.66 18 20.66C9.58 20.66 2.91 18.21 1.27 14.95Z" fill="white" stroke="black" stroke-width="0.5" stroke-linecap="round" stroke-linejoin="round"/>
<path d="M34.72 6.33C34.84 6.68 34.91 7.03 34.91 7.4C34.91 11.35 27.33 14.55 17.99 14.55C8.65001 14.55 1.07001 11.35 1.07001 7.4C1.07001 7.05 1.13001 6.71 1.24001 6.37" stroke="black" stroke-width="0.3" stroke-linecap="round" stroke-linejoin="round"/>
<path d="M25.02 40.65C23.55 41.63 21.02 42.54 18.08 42.83C15.17 43.12 12.58 42.69 11 41.98" stroke="black" stroke-width="0.3" stroke-linecap="round" stroke-linejoin="round"/>
<path d="M24.97 37.89C25.01 38.97 21.88 40.39 18.06 40.75C14.24 41.12 11.03 40.36 11 39.28" stroke="black" stroke-width="0.3" stroke-linecap="round" stroke-linejoin="round"/>
<path d="M25.02 36.54C23.55 37.52 21.02 38.43 18.08 38.72C15.17 39.01 12.58 38.58 11 37.87" stroke="black" stroke-width="0.3" stroke-linecap="round" stroke-linejoin="round"/>
<path d="M24.97 33.77C25.01 34.85 21.88 36.27 18.06 36.63C14.24 37 11.03 36.25 11 35.16" stroke="black" stroke-width="0.3" stroke-linecap="round" stroke-linejoin="round"/>
<path d="M25.02 32.42C23.55 33.4 21.02 34.31 18.08 34.6C15.17 34.89 12.58 34.45 11 33.75" stroke="black" stroke-width="0.3" stroke-linecap="round" stroke-linejoin="round"/>
<path d="M24.97 29.65C25.01 30.74 21.88 32.15 18.06 32.51C14.24 32.88 11.03 32.13 11 31.04" stroke="black" stroke-width="0.3" stroke-linecap="round" stroke-linejoin="round"/>
<path d="M25.02 28.3C23.55 29.28 21.02 30.19 18.08 30.48C15.17 30.77 12.58 30.33 11 29.63" stroke="black" stroke-width="0.3" stroke-linecap="round" stroke-linejoin="round"/>
<path d="M24.97 25.53C25.01 26.62 21.88 28.03 18.06 28.39C14.24 28.76 11.03 28.01 11 26.92" stroke="black" stroke-width="0.3" stroke-linecap="round" stroke-linejoin="round"/>
<path d="M25.02 24.18C23.55 25.16 21.02 26.07 18.08 26.36C15.17 26.65 12.58 26.22 11 25.51" stroke="black" stroke-width="0.3" stroke-linecap="round" stroke-linejoin="round"/>
<path d="M24.97 21.42C25.01 22.5 21.88 23.92 18.06 24.28C14.24 24.65 11.03 23.89 11 22.81" stroke="black" stroke-width="0.3" stroke-linecap="round" stroke-linejoin="round"/>
<path d="M12.13 5.42001L15.14 5.53001C15.36 5.55001 15.55 5.49001 15.61 5.39001L16.69 4.06001C16.78 3.91001 17.12 3.88001 17.38 3.96001C17.47 3.99001 17.54 4.03001 17.6 4.08001L19.26 5.63001C19.37 5.74001 19.59 5.80001 19.81 5.80001L22.92 5.70001C23.34 5.69001 23.69 5.95001 23.48 6.12001L22.27 7.39001C22.17 7.48001 22.2 7.60001 22.35 7.70001L24.24 9.11001C24.54 9.30001 24.32 9.55001 23.89 9.51001L20.98 9.37001C20.76 9.35001 20.57 9.41001 20.51 9.51001L19.32 10.87C19.2 11.07 18.64 11.06 18.41 10.85L16.57 9.50001C16.46 9.39001 16.24 9.33001 16.02 9.33001L13.08 9.22001C12.66 9.23001 12.31 8.97001 12.52 8.80001L13.52 7.48001C13.62 7.39001 13.59 7.27001 13.44 7.17001L11.76 5.81001C11.46 5.62001 11.68 5.37001 12.11 5.41001L12.13 5.42001Z" stroke="black" stroke-width="0.3" stroke-linecap="round" stroke-linejoin="round"/>
</g>
<defs>
<clipPath id="clip0_75_2769">
<rect width="35.87" height="47.47" fill="white"/>
</clipPath>
</defs>
</svg>
